assets/images/common/cloud.svg

<svg width="2000" height="464" fill="none" xmlns="http://www.w3.org/2000/svg"><g clip-path="url(#a)"><path d="M2000 82.133a37.863 37.863 0 0 0-13.77 6.334c-9.29-12.3-24.04-20.254-40.65-20.254-19.23 0-35.96 10.654-44.63 26.38a42.503 42.503 0 0 0-10.86-1.406c-22.76 0-41.36 17.88-42.5 40.36a49.644 49.644 0 0 0-22.11 18.153 36.987 36.987 0 0 0-19.53-8.82c-7.97-12.287-21.79-20.427-37.52-20.427-9.96 0-19.15 3.26-26.58 8.767a54.262 54.262 0 0 0-24.94-6.047c-17.42 0-32.94 8.187-42.91 20.92a35.509 35.509 0 0 0-11.56-1.933c-19.06 0-34.61 15.033-35.45 33.887h-.04c-12.71 0-23.64 7.566-28.57 18.433-5.17-33.253-32.71-59.753-67.71-62.287-2.52-.18-5.03-.233-7.51-.166-9.09-20.047-28.59-34.614-52.09-36.314-14.67-1.06-28.52 3.08-39.74 10.847-13.34.427-25.01 8.38-30.56 19.98-.23-.02-.46-.053-.68-.067-26.88-1.94-50.3 17.78-53.19 44.354-22.83 3.333-41.31 21.346-44.71 44.746-7.52-14.426-21.66-24.853-38.4-27.233-12.66-15.18-31.72-24.833-53.02-24.833-21.31 0-39.4 9.173-52.05 23.68-9.37-6.94-20.97-11.04-33.52-11.04-23.07 0-42.9 13.86-51.63 33.706-10.08-15.926-26.96-27.373-47.12-29.846-8.55-1.047-16.91-.387-24.74 1.713-9.417-15.567-25.617-26.813-45.077-29.2-30.753-3.773-58.973 15.9-66.746 45.007-1.4-.34-2.827-.607-4.294-.787a38.049 38.049 0 0 0-4.586-.273 42.455 42.455 0 0 0-19.674-7.687c-10.5-1.287-20.566 1.373-28.733 6.8-5.467-17.347-21.687-29.927-40.84-29.927a42.661 42.661 0 0 0-25.127 8.154c-6.286-20.3-25.206-35.04-47.566-35.04-16.214 0-30.614 7.76-39.7 19.76a16.5 16.5 0 0 0-7.674-1.887c-3.02 0-5.846.813-8.286 2.227-6.947-7.56-16.907-12.3-27.987-12.3-12 0-22.687 5.566-29.653 14.246-1.227-12.72-10.627-23.586-23.647-26.213-8.207-18.94-25.56-33.453-47.433-37.087-21.367-3.546-42 4.127-55.887 18.707a41.7 41.7 0 0 0-18.247 1.693c-7.56-6.34-16.86-10.806-27.3-12.54-24.013-3.986-47 7.634-58.633 27.44-10.947-12.106-26.12-20.32-43.187-22.313-3.913-16.82-18.993-29.36-37.006-29.36a37.824 37.824 0 0 0-22.434 7.333c-9.293-12.3-24.046-20.253-40.653-20.253-19.227 0-35.96 10.653-44.627 26.38a42.572 42.572 0 0 0-10.86-1.407A42.386 42.386 0 0 0 157 99.6c.087-1.153.147-2.313.147-3.487 0-20.92-14.487-38.453-33.974-43.126-1.073-21.727-19.026-39.014-41.02-39.014a40.858 40.858 0 0 0-23.333 7.274C47.027 8.2 29.967 0 10.987 0A64.87 64.87 0 0 0 0 .94V161.4a34.529 34.529 0 0 0 15.56-11.26c9.727 12.64 25.007 20.793 42.193 20.793 21.447 0 39.934-12.693 48.354-30.973 2.186.333 4.426.507 6.7.507 7.42 0 14.406-1.834 20.553-5.054 0 .047-.007.094-.013.147-17.887 7.433-30.46 25.067-30.46 45.64 0 24.107 17.26 44.173 40.093 48.527 5.9 12.213 18.4 20.64 32.873 20.64a36.336 36.336 0 0 0 21.88-7.287c8.28 16.92 25.66 28.573 45.767 28.573 13.347 0 25.493-5.14 34.58-13.54 1.373.18 2.767.287 4.187.287 9.253 0 17.573-3.98 23.353-10.313a69.151 69.151 0 0 0 17.693 2.286c5.48 0 10.807-.64 15.914-1.84a40.4 40.4 0 0 0 5.286 1.267c6.434 1.067 12.76.5 18.567-1.38 7.613 15.12 22.087 26.533 40.073 29.52 15.887 2.64 31.307-1.827 43.027-11.073 1.3.38 2.633.693 4.007.92a33.957 33.957 0 0 0 22.706-4.147c9.954 12.7 24.507 21.86 41.68 24.713 26.127 4.334 51.22-7.1 65.567-27.346.907-.1 1.8-.234 2.693-.387a30.709 30.709 0 0 0 11.254 4.933c4.173 10.934 14.006 19.06 25.926 20.8 6.294 18.42 23.747 31.674 44.3 31.674 12.494 0 23.84-4.907 32.234-12.887a32.09 32.09 0 0 0 10.386 1.727 31.937 31.937 0 0 0 17.727-5.34 52.54 52.54 0 0 0 27.273 7.586c20.08 0 37.54-11.206 46.474-27.706 3.866 16.386 17.566 29.42 35.26 31.586 11.253 1.38 21.993-1.893 30.313-8.313 7.407 16.733 23.173 29.267 42.66 31.66 18.227 2.233 35.433-4.933 46.773-17.687a44.319 44.319 0 0 0 17.667 6.127c4.86.593 9.627.373 14.18-.54a36.818 36.818 0 0 0 22.36 11.3c18.95 2.327 36.29-10.147 40.47-28.353 8.02 11 21.01 18.153 35.66 18.153.78 0 1.54-.02 2.31-.06 11.73 15.193 30.13 24.973 50.81 24.973 12.46 0 24.08-3.553 33.92-9.686a61.953 61.953 0 0 0 39.98 14.546c10.18 0 19.8-2.446 28.28-6.78 8.02 7.12 18.56 11.454 30.12 11.454 21.77 0 39.94-15.34 44.33-35.8 26.26-.327 47.69-20.66 49.75-46.467 12.7-2.093 24-8.747 32.02-18.333 9.71 13.9 25.37 23.473 43.6 24.786 16.86 1.22 32.55-4.866 44-15.553 10.6 7.453 23.28 12.22 37.14 13.227 37.92 2.74 71.22-23.634 77.99-60.167 3.67 8.807 11.25 15.58 20.56 18.16a50.238 50.238 0 0 0-2.83 16.66c0 27.807 22.54 50.347 50.34 50.347 11.78 0 22.6-4.054 31.18-10.827 3.98 2.167 8.54 3.4 13.4 3.4 5.74 0 11.08-1.727 15.52-4.687a54.356 54.356 0 0 0 22.5 3.94c4.52 5.967 11.69 9.827 19.75 9.827 7.01 0 13.35-2.92 17.85-7.613a54.39 54.39 0 0 0 16.82 2.66c27.88 0 50.86-20.96 54.08-47.987a36.8 36.8 0 0 0 18.09-10.147 36.33 36.33 0 0 0 14.83 3.147c8.21 0 15.79-2.713 21.88-7.287 8.28 16.92 25.66 28.574 45.77 28.574 13.35 0 25.49-5.14 34.58-13.54 1.37.18 2.77.286 4.19.286 1.18 0 2.34-.066 3.49-.193V82.133Z" fill="#E6ECF5"/><path d="M2000 129.247c-11.62 9.846-19.44 24.046-20.91 40.086-4.34-.62-8.76-.953-13.26-.953-40.89 0-75.56 26.6-87.66 63.433a56.831 56.831 0 0 0-18.57 7.18c-11.31-13.433-28.24-21.973-47.17-21.973-15.8 0-30.2 5.953-41.11 15.727-14.43-20.48-38.27-33.854-65.23-33.854-17.66 0-33.98 5.747-47.2 15.467-13.04-24.313-38.7-40.853-68.22-40.853-25.35 0-47.85 12.193-61.96 31.04-17.78-18.52-42.77-30.047-70.46-30.047-34.72 0-65.2 18.12-82.52 45.413a47.354 47.354 0 0 0-13.46 8.767c-1.82-.18-3.67-.28-5.54-.28a54.869 54.869 0 0 0-30.28 9.073 80.148 80.148 0 0 0-15.7-1.566c-28.72 0-53.89 15.226-67.87 38.053-14.53-11.533-32.9-18.427-52.89-18.427-4.03 0-7.98.287-11.86.827-11.49-7.867-25.4-12.48-40.38-12.48-31.88 0-58.88 20.847-68.14 49.647-8.9.686-17.4 2.826-25.25 6.173a64.795 64.795 0 0 0-20.03-3.153c-8.37 0-16.36 1.6-23.71 4.48-3.193-32.36-30.486-57.64-63.686-57.64-2.834 0-5.627.206-8.36.56-10.967-13.12-27.44-21.467-45.874-21.467-31.14 0-56.706 23.813-59.5 54.227a92.473 92.473 0 0 0-13.26-.954c-7.613 0-15.006.927-22.086 2.66-8.394-10.946-21.594-18.006-36.454-18.006-2.553 0-5.06.22-7.5.62.154-1.774.247-3.567.247-5.387 0-34.04-27.593-61.627-61.627-61.627-15.8 0-30.206 5.954-41.113 15.727-14.433-20.48-38.267-33.853-65.227-33.853-31.326 0-58.433 18.066-71.473 44.34a38.545 38.545 0 0 0-15.533-3.254 38.49 38.49 0 0 0-24.94 9.127 46.899 46.899 0 0 0-25.1-9.373c-8.587-34.667-39.887-60.374-77.207-60.374-28.727 0-53.893 15.227-67.873 38.054-14.527-11.534-32.9-18.427-52.894-18.427-4.026 0-7.98.287-11.853.827a71.256 71.256 0 0 0-40.38-12.48c-7.2 0-14.153 1.073-20.707 3.053 0-.28.014-.56.014-.84 0-42.727-34.64-77.367-77.367-77.367-25.353 0-47.853 12.194-61.967 31.04A97.892 97.892 0 0 0 .014 99.44v213.387c13.08 6.606 27.853 10.34 43.506 10.34 2.88 0 5.72-.134 8.534-.38 11.573 30.12 40.773 51.5 74.966 51.5a79.917 79.917 0 0 0 31.814-6.567 63.56 63.56 0 0 0 30.093 7.533c12.133 0 23.48-3.386 33.14-9.266a40.986 40.986 0 0 0 19.093 4.693c4.18 0 8.214-.627 12.014-1.787 15.953 18.127 39.326 29.574 65.373 29.574 22.773 0 43.493-8.747 59.013-23.06 1.274.08 2.547.133 3.84.133 11.114 0 21.527-3.02 30.454-8.287 11.393 11.274 26.92 18.387 44.106 18.854 9.947 11.106 24.387 18.106 40.474 18.106 8.84 0 17.18-2.126 24.553-5.873a50.585 50.585 0 0 0 29.753 9.633c4.367 0 8.6-.553 12.647-1.586 14.427 14.38 34.327 23.273 56.307 23.273 21.98 0 42.826-9.327 57.326-24.313 4.754 26.78 28.127 47.12 56.274 47.12 9.74 0 18.906-2.44 26.933-6.74 14.347 9.2 31.413 14.533 49.727 14.533 11.76 0 23.006-2.207 33.353-6.22 8.02 6.727 168.013 8.593 171.583-28.253 14.73 17.166 36.58 28.046 60.97 28.046 11.31 0 22.06-2.346 31.81-6.566a63.592 63.592 0 0 0 30.1 7.533c12.13 0 23.48-3.387 33.14-9.267a40.95 40.95 0 0 0 19.09 4.694c4.18 0 8.21-.627 12.01-1.787 15.96 18.127 108.87 20.827 124.39 6.513 1.27.08 2.55.134 3.84.134 28.01 0 51.53-19.16 58.19-45.087 1.22.067 2.45.107 3.69.107 18.45 0 35.13-7.56 47.13-19.747 9.97 5.393 21.38 8.453 33.51 8.453a70.38 70.38 0 0 0 22.97-3.846c14.06 7.966 30.3 12.52 47.61 12.52 7.43 0 14.66-.847 21.61-2.434a64.968 64.968 0 0 0 20.93 4.047c9.95 11.107 24.39 18.107 40.47 18.107a54.09 54.09 0 0 0 24.56-5.874 50.56 50.56 0 0 0 29.75 9.634c4.37 0 8.6-.554 12.65-1.587 14.42 14.38 34.32 23.273 56.3 23.273 25.52 0 48.24-11.98 62.84-30.626a51.846 51.846 0 0 0 16.92 2.833c27.92 0 50.68-22.007 51.9-49.613h.06c20.46 0 37.79-13.387 43.73-31.874 12.3 6.074 26.15 9.5 40.79 9.5 11.76 0 23.01-2.206 33.36-6.22.26.227.54.44.82.66V129.247h-.03Z" fill="#F7F9FC"/><path d="M2000 243.62a68.423 68.423 0 0 0-11.93 35.707h-.08a60.496 60.496 0 0 0-29.77 7.786c-4.71-1.14-9.53-2.026-14.46-2.633-16.55-2.033-32.75-.747-47.93 3.313-18.24-30.16-49.64-51.946-87.33-56.573-59.58-7.307-114.26 30.807-129.31 87.2a73.985 73.985 0 0 0-8.32-1.527 72.849 72.849 0 0 0-8.88-.526c-10.9-7.847-23.86-13.14-38.12-14.894-45.22-5.546-86.38 26.62-91.93 71.847-.03.26-.05.513-.08.773-14.69-12.686-32.98-21.326-53.13-24.2-25.55-30.626-64-50.113-107-50.113s-79.48 18.507-105.02 47.787c-18.9-14-42.3-22.28-67.63-22.28-41.17 0-77.23 21.86-97.21 54.606a80.381 80.381 0 0 0-13.67-1.173c-16.79 0-32.37 5.207-45.21 14.093-22.87-25.273-55.93-41.16-92.696-41.16-3.447 0-6.854.14-10.227.414-15.087-20.707-39.513-34.167-67.093-34.167-18.194 0-35 5.873-48.68 15.8-12.18-39.327-48.834-67.893-92.16-67.893-31.42 0-59.314 15.033-76.927 38.286a31.95 31.95 0 0 0-14.86-3.653 31.867 31.867 0 0 0-16.053 4.313c-13.46-14.646-32.76-23.826-54.22-23.826-25.16 0-47.367 12.62-60.647 31.873a128.544 128.544 0 0 0-12.447-2.707c-37.673-6.253-74.22 4.78-101.54 27.3-21.146-39.006-60.34-66.8-106.38-72.186-7.9-33.947-38.32-59.247-74.673-59.247-16.933 0-32.58 5.5-45.267 14.8-18.76-24.827-48.52-40.873-82.033-40.873-36.7 0-68.9 19.253-87.073 48.2V465.44H2000V243.62Z" fill="#fff"/></g><defs><clipPath id="a"><path fill="#fff" d="M0 0h2000v464H0z"/></clipPath></defs></svg>

<svg width="2000" height="464" viewBox="0 0 2000 464" fill="none" xmlns="http://www.w3.org/2000/svg">
<g clip-path="url(#clip0_328_334)">
<path d="M2000 82.1333C1994.95 83.3133 1990.29 85.4933 1986.23 88.4667C1976.94 76.1667 1962.19 68.2133 1945.58 68.2133C1926.35 68.2133 1909.62 78.8667 1900.95 94.5933C1897.49 93.68 1893.85 93.1867 1890.09 93.1867C1867.33 93.1867 1848.73 111.067 1847.59 133.547C1838.55 137.307 1830.87 143.673 1825.48 151.7C1820.11 147.013 1813.37 143.853 1805.95 142.88C1797.98 130.593 1784.16 122.453 1768.43 122.453C1758.47 122.453 1749.28 125.713 1741.85 131.22C1734.37 127.367 1725.91 125.173 1716.91 125.173C1699.49 125.173 1683.97 133.36 1674 146.093C1670.37 144.847 1666.49 144.16 1662.44 144.16C1643.38 144.16 1627.83 159.193 1626.99 178.047C1626.98 178.047 1626.97 178.047 1626.95 178.047C1614.24 178.047 1603.31 185.613 1598.38 196.48C1593.21 163.227 1565.67 136.727 1530.67 134.193C1528.15 134.013 1525.64 133.96 1523.16 134.027C1514.07 113.98 1494.57 99.4133 1471.07 97.7133C1456.4 96.6533 1442.55 100.793 1431.33 108.56C1417.99 108.987 1406.32 116.94 1400.77 128.54C1400.54 128.52 1400.31 128.487 1400.09 128.473C1373.21 126.533 1349.79 146.253 1346.9 172.827C1324.07 176.16 1305.59 194.173 1302.19 217.573C1294.67 203.147 1280.53 192.72 1263.79 190.34C1251.13 175.16 1232.07 165.507 1210.77 165.507C1189.46 165.507 1171.37 174.68 1158.72 189.187C1149.35 182.247 1137.75 178.147 1125.2 178.147C1102.13 178.147 1082.3 192.007 1073.57 211.853C1063.49 195.927 1046.61 184.48 1026.45 182.007C1017.9 180.96 1009.54 181.62 1001.71 183.72C992.293 168.153 976.093 156.907 956.633 154.52C925.88 150.747 897.66 170.42 889.887 199.527C888.487 199.187 887.06 198.92 885.593 198.74C884.053 198.553 882.52 198.467 881.007 198.467C875.387 194.42 868.693 191.687 861.333 190.78C850.833 189.493 840.767 192.153 832.6 197.58C827.133 180.233 810.913 167.653 791.76 167.653C782.373 167.653 773.693 170.687 766.633 175.807C760.347 155.507 741.427 140.767 719.067 140.767C702.853 140.767 688.453 148.527 679.367 160.527C677.073 159.327 674.467 158.64 671.693 158.64C668.673 158.64 665.847 159.453 663.407 160.867C656.46 153.307 646.5 148.567 635.42 148.567C623.42 148.567 612.733 154.133 605.767 162.813C604.54 150.093 595.14 139.227 582.12 136.6C573.913 117.66 556.56 103.147 534.687 99.5133C513.32 95.9667 492.687 103.64 478.8 118.22C472.473 117.407 466.28 118.053 460.553 119.913C452.993 113.573 443.693 109.107 433.253 107.373C409.24 103.387 386.253 115.007 374.62 134.813C363.673 122.707 348.5 114.493 331.433 112.5C327.52 95.68 312.44 83.14 294.427 83.14C286.033 83.14 278.28 85.8667 271.993 90.4733C262.7 78.1733 247.947 70.22 231.34 70.22C212.113 70.22 195.38 80.8733 186.713 96.6C183.247 95.6867 179.607 95.1933 175.853 95.1933C169.08 95.1933 162.687 96.7867 157 99.6C157.087 98.4467 157.147 97.2867 157.147 96.1133C157.147 75.1933 142.66 57.66 123.173 52.9867C122.1 31.26 104.147 13.9733 82.1533 13.9733C73.4867 13.9733 65.4467 16.66 58.82 21.2467C47.0267 8.2 29.9667 0 10.9867 0C7.24 0 3.57333 0.326667 0 0.94V161.4C6.2 159.18 11.5867 155.233 15.56 150.14C25.2867 162.78 40.5667 170.933 57.7533 170.933C79.2 170.933 97.6867 158.24 106.107 139.96C108.293 140.293 110.533 140.467 112.807 140.467C120.227 140.467 127.213 138.633 133.36 135.413C133.36 135.46 133.353 135.507 133.347 135.56C115.46 142.993 102.887 160.627 102.887 181.2C102.887 205.307 120.147 225.373 142.98 229.727C148.88 241.94 161.38 250.367 175.853 250.367C184.06 250.367 191.64 247.653 197.733 243.08C206.013 260 223.393 271.653 243.5 271.653C256.847 271.653 268.993 266.513 278.08 258.113C279.453 258.293 280.847 258.4 282.267 258.4C291.52 258.4 299.84 254.42 305.62 248.087C311.267 249.58 317.2 250.373 323.313 250.373C328.793 250.373 334.12 249.733 339.227 248.533C340.94 249.067 342.7 249.493 344.513 249.8C350.947 250.867 357.273 250.3 363.08 248.42C370.693 263.54 385.167 274.953 403.153 277.94C419.04 280.58 434.46 276.113 446.18 266.867C447.48 267.247 448.813 267.56 450.187 267.787C458.327 269.14 466.273 267.487 472.893 263.64C482.847 276.34 497.4 285.5 514.573 288.353C540.7 292.687 565.793 281.253 580.14 261.007C581.047 260.907 581.94 260.773 582.833 260.62C586.16 262.96 589.967 264.673 594.087 265.553C598.26 276.487 608.093 284.613 620.013 286.353C626.307 304.773 643.76 318.027 664.313 318.027C676.807 318.027 688.153 313.12 696.547 305.14C699.807 306.253 703.3 306.867 706.933 306.867C713.487 306.867 719.58 304.9 724.66 301.527C732.62 306.34 741.953 309.113 751.933 309.113C772.013 309.113 789.473 297.907 798.407 281.407C802.273 297.793 815.973 310.827 833.667 312.993C844.92 314.373 855.66 311.1 863.98 304.68C871.387 321.413 887.153 333.947 906.64 336.34C924.867 338.573 942.073 331.407 953.413 318.653C958.647 321.833 964.613 323.987 971.08 324.78C975.94 325.373 980.707 325.153 985.26 324.24C990.96 330.28 998.727 334.447 1007.62 335.54C1026.57 337.867 1043.91 325.393 1048.09 307.187C1056.11 318.187 1069.1 325.34 1083.75 325.34C1084.53 325.34 1085.29 325.32 1086.06 325.28C1097.79 340.473 1116.19 350.253 1136.87 350.253C1149.33 350.253 1160.95 346.7 1170.79 340.567C1181.6 349.647 1195.55 355.113 1210.77 355.113C1220.95 355.113 1230.57 352.667 1239.05 348.333C1247.07 355.453 1257.61 359.787 1269.17 359.787C1290.94 359.787 1309.11 344.447 1313.5 323.987C1339.76 323.66 1361.19 303.327 1363.25 277.52C1375.95 275.427 1387.25 268.773 1395.27 259.187C1404.98 273.087 1420.64 282.66 1438.87 283.973C1455.73 285.193 1471.42 279.107 1482.87 268.42C1493.47 275.873 1506.15 280.64 1520.01 281.647C1557.93 284.387 1591.23 258.013 1598 221.48C1601.67 230.287 1609.25 237.06 1618.56 239.64C1616.73 244.86 1615.73 250.46 1615.73 256.3C1615.73 284.107 1638.27 306.647 1666.07 306.647C1677.85 306.647 1688.67 302.593 1697.25 295.82C1701.23 297.987 1705.79 299.22 1710.65 299.22C1716.39 299.22 1721.73 297.493 1726.17 294.533C1732.49 297.093 1739.39 298.513 1746.63 298.513C1747.31 298.513 1747.99 298.5 1748.67 298.473C1753.19 304.44 1760.36 308.3 1768.42 308.3C1775.43 308.3 1781.77 305.38 1786.27 300.687C1791.57 302.407 1797.22 303.347 1803.09 303.347C1830.97 303.347 1853.95 282.387 1857.17 255.36C1864.17 253.76 1870.41 250.167 1875.26 245.213C1879.79 247.233 1884.81 248.36 1890.09 248.36C1898.3 248.36 1905.88 245.647 1911.97 241.073C1920.25 257.993 1937.63 269.647 1957.74 269.647C1971.09 269.647 1983.23 264.507 1992.32 256.107C1993.69 256.287 1995.09 256.393 1996.51 256.393C1997.69 256.393 1998.85 256.327 2000 256.2V82.1333V82.1333Z" fill="#E6ECF5"/>
<path d="M2000 129.247C1988.38 139.093 1980.56 153.293 1979.09 169.333C1974.75 168.713 1970.33 168.38 1965.83 168.38C1924.94 168.38 1890.27 194.98 1878.17 231.813C1871.49 233.113 1865.23 235.587 1859.6 238.993C1848.29 225.56 1831.36 217.02 1812.43 217.02C1796.63 217.02 1782.23 222.973 1771.32 232.747C1756.89 212.267 1733.05 198.893 1706.09 198.893C1688.43 198.893 1672.11 204.64 1658.89 214.36C1645.85 190.047 1620.19 173.507 1590.67 173.507C1565.32 173.507 1542.82 185.7 1528.71 204.547C1510.93 186.027 1485.94 174.5 1458.25 174.5C1423.53 174.5 1393.05 192.62 1375.73 219.913C1370.74 222.06 1366.2 225.04 1362.27 228.68C1360.45 228.5 1358.6 228.4 1356.73 228.4C1345.55 228.4 1335.14 231.747 1326.45 237.473C1321.37 236.46 1316.13 235.907 1310.75 235.907C1282.03 235.907 1256.86 251.133 1242.88 273.96C1228.35 262.427 1209.98 255.533 1189.99 255.533C1185.96 255.533 1182.01 255.82 1178.13 256.36C1166.64 248.493 1152.73 243.88 1137.75 243.88C1105.87 243.88 1078.87 264.727 1069.61 293.527C1060.71 294.213 1052.21 296.353 1044.36 299.7C1038.05 297.653 1031.32 296.547 1024.33 296.547C1015.96 296.547 1007.97 298.147 1000.62 301.027C997.427 268.667 970.134 243.387 936.934 243.387C934.1 243.387 931.307 243.593 928.574 243.947C917.607 230.827 901.134 222.48 882.7 222.48C851.56 222.48 825.994 246.293 823.2 276.707C818.867 276.08 814.447 275.753 809.94 275.753C802.327 275.753 794.934 276.68 787.854 278.413C779.46 267.467 766.26 260.407 751.4 260.407C748.847 260.407 746.34 260.627 743.9 261.027C744.054 259.253 744.147 257.46 744.147 255.64C744.147 221.6 716.554 194.013 682.52 194.013C666.72 194.013 652.314 199.967 641.407 209.74C626.974 189.26 603.14 175.887 576.18 175.887C544.854 175.887 517.747 193.953 504.707 220.227C499.954 218.14 494.7 216.973 489.174 216.973C479.667 216.973 470.967 220.407 464.234 226.1C457.154 220.76 448.52 217.367 439.134 216.727C430.547 182.06 399.247 156.353 361.927 156.353C333.2 156.353 308.034 171.58 294.054 194.407C279.527 182.873 261.154 175.98 241.16 175.98C237.134 175.98 233.18 176.267 229.307 176.807C217.814 168.94 203.907 164.327 188.927 164.327C181.727 164.327 174.774 165.4 168.22 167.38C168.22 167.1 168.234 166.82 168.234 166.54C168.234 123.813 133.594 89.1733 90.867 89.1733C65.5137 89.1733 43.0137 101.367 28.9003 120.213C20.6737 111.64 10.8937 104.567 0.0136719 99.44V312.827C13.0937 319.433 27.867 323.167 43.5203 323.167C46.4003 323.167 49.2403 323.033 52.0537 322.787C63.627 352.907 92.827 374.287 127.02 374.287C138.327 374.287 149.08 371.94 158.834 367.72C167.8 372.52 178.04 375.253 188.927 375.253C201.06 375.253 212.407 371.867 222.067 365.987C227.774 368.98 234.267 370.68 241.16 370.68C245.34 370.68 249.374 370.053 253.174 368.893C269.127 387.02 292.5 398.467 318.547 398.467C341.32 398.467 362.04 389.72 377.56 375.407C378.834 375.487 380.107 375.54 381.4 375.54C392.514 375.54 402.927 372.52 411.854 367.253C423.247 378.527 438.774 385.64 455.96 386.107C465.907 397.213 480.347 404.213 496.434 404.213C505.274 404.213 513.614 402.087 520.987 398.34C529.354 404.393 539.627 407.973 550.74 407.973C555.107 407.973 559.34 407.42 563.387 406.387C577.814 420.767 597.714 429.66 619.694 429.66C641.674 429.66 662.52 420.333 677.02 405.347C681.774 432.127 705.147 452.467 733.294 452.467C743.034 452.467 752.2 450.027 760.227 445.727C774.574 454.927 791.64 460.26 809.954 460.26C821.714 460.26 832.96 458.053 843.307 454.04C851.327 460.767 1011.32 462.633 1014.89 425.787C1029.62 442.953 1051.47 453.833 1075.86 453.833C1087.17 453.833 1097.92 451.487 1107.67 447.267C1116.64 452.067 1126.88 454.8 1137.77 454.8C1149.9 454.8 1161.25 451.413 1170.91 445.533C1176.61 448.527 1183.11 450.227 1190 450.227C1194.18 450.227 1198.21 449.6 1202.01 448.44C1217.97 466.567 1310.88 469.267 1326.4 454.953C1327.67 455.033 1328.95 455.087 1330.24 455.087C1358.25 455.087 1381.77 435.927 1388.43 410C1389.65 410.067 1390.88 410.107 1392.12 410.107C1410.57 410.107 1427.25 402.547 1439.25 390.36C1449.22 395.753 1460.63 398.813 1472.76 398.813C1480.81 398.813 1488.53 397.447 1495.73 394.967C1509.79 402.933 1526.03 407.487 1543.34 407.487C1550.77 407.487 1558 406.64 1564.95 405.053C1571.49 407.487 1578.53 408.9 1585.88 409.1C1595.83 420.207 1610.27 427.207 1626.35 427.207C1635.19 427.207 1643.53 425.08 1650.91 421.333C1659.27 427.387 1669.55 430.967 1680.66 430.967C1685.03 430.967 1689.26 430.413 1693.31 429.38C1707.73 443.76 1727.63 452.653 1749.61 452.653C1775.13 452.653 1797.85 440.673 1812.45 422.027C1817.75 423.853 1823.44 424.86 1829.37 424.86C1857.29 424.86 1880.05 402.853 1881.27 375.247C1881.29 375.247 1881.31 375.247 1881.33 375.247C1901.79 375.247 1919.12 361.86 1925.06 343.373C1937.36 349.447 1951.21 352.873 1965.85 352.873C1977.61 352.873 1988.86 350.667 1999.21 346.653C1999.47 346.88 1999.75 347.093 2000.03 347.313V129.247H2000Z" fill="#F7F9FC"/>
<path d="M2000 243.62C1992.98 253.867 1988.66 266.113 1988.07 279.327C1988.05 279.327 1988.02 279.327 1987.99 279.327C1977.17 279.327 1967.02 282.16 1958.22 287.113C1953.51 285.973 1948.69 285.087 1943.76 284.48C1927.21 282.447 1911.01 283.733 1895.83 287.793C1877.59 257.633 1846.19 235.847 1808.5 231.22C1748.92 223.913 1694.24 262.027 1679.19 318.42C1676.47 317.767 1673.71 317.24 1670.87 316.893C1667.89 316.527 1664.92 316.367 1661.99 316.367C1651.09 308.52 1638.13 303.227 1623.87 301.473C1578.65 295.927 1537.49 328.093 1531.94 373.32C1531.91 373.58 1531.89 373.833 1531.86 374.093C1517.17 361.407 1498.88 352.767 1478.73 349.893C1453.18 319.267 1414.73 299.78 1371.73 299.78C1328.73 299.78 1292.25 318.287 1266.71 347.567C1247.81 333.567 1224.41 325.287 1199.08 325.287C1157.91 325.287 1121.85 347.147 1101.87 379.893C1097.43 379.127 1092.86 378.72 1088.2 378.72C1071.41 378.72 1055.83 383.927 1042.99 392.813C1020.12 367.54 987.06 351.653 950.294 351.653C946.847 351.653 943.44 351.793 940.067 352.067C924.98 331.36 900.554 317.9 872.974 317.9C854.78 317.9 837.974 323.773 824.294 333.7C812.114 294.373 775.46 265.807 732.134 265.807C700.714 265.807 672.82 280.84 655.207 304.093C650.76 301.767 645.714 300.44 640.347 300.44C634.494 300.44 629.014 302.013 624.294 304.753C610.834 290.107 591.534 280.927 570.074 280.927C544.914 280.927 522.707 293.547 509.427 312.8C505.367 311.707 501.214 310.793 496.98 310.093C459.307 303.84 422.76 314.873 395.44 337.393C374.294 298.387 335.1 270.593 289.06 265.207C281.16 231.26 250.74 205.96 214.387 205.96C197.454 205.96 181.807 211.46 169.12 220.76C150.36 195.933 120.6 179.887 87.087 179.887C50.387 179.887 18.187 199.14 0.0136719 228.087V465.44H2000V243.62Z" fill="white"/>
</g>
<defs>
<clipPath id="clip0_328_334">
<rect width="2000" height="464" fill="white"/>
</clipPath>
</defs>
</svg>
